X:1
T:Title
%%score { ( 1 3 ) | ( 2 4 ) }
L:1/8
M:12/8
K:Eb
V:1 treble nm="Grand Piano"
V:3 treble 
V:2 bass 
V:4 bass 
V:1
 z6 z3[Q:1/4=110] GFE | B3 B3 G3 [CEA][B,EB][Ec] | B3 B3 G3 GFE | B6- B3 z3 | E6- E3 z3 | %5
 B3 B3 G3 [CEA][B,EB][Ec] | [EB]3 [EB]3 [Ge]3 edc | d6- d3 z3 |[M:9/8] B8- B |[M:3/8] Bcd | %10
[M:6/4] e12 | c12 | B12 | z2 z E3 E3 Bcd | e12 | c12 | %16
[M:27/16] d/-d/-d/-d/-d/-d/-d/-d/-d/-d/-d/-d/-d/-d/-d-<d z/ z/ z/ z/ z/ z/ z/ z |[M:9/8] e8- e |] %18
V:2
 z6 z3 [E,B,E][E,A,E][E,G,] | [E,G,E]3 [E,G,E]3 [E,B,E]3 A,,A,,[A,,A,] | %2
 [E,G,E]3 [E,G,E]3 [E,B,E]3 B,A,G, | z3 .G,3 z6 | %4
 E,3- [E,-A,][E,-A,][E,-A,] [E,G,]3 [E,B,E][E,A,E][E,G,] | %5
 [E,G,E]3 [E,G,E]3 [E,B,E]3 A,,A,,[A,,A,] | [E,G,]3 [E,G,]3 [C,C]3 CB,=A, | B,6- B,3 z3 | %8
[M:9/8] z3 G,G,G, A,3 |[M:3/8] z3 |[M:6/4] z2 z [E,B,][G,B,]B, .[E,B,]6 | %11
 z2 z [A,,A,][C,A,][E,A,] .A,6 | z2 z [B,,F,][B,,F,][B,,G,] [B,,A,]3 [D,B,]3 | %13
 [E,B,E]3 [E,B,]3 .[E,B,]6 | z2 z [E,B,][G,B,]B, .[E,B,]6 | z2 z [A,,A,][C,A,][E,A,] .A,6 | %16
[M:27/16] z/ z/ z/ z/ z B,B,B,B,/-B,/-B,-<B,[K:treble][B,DA]/-[B,DA]/-[B,DA]/-[B,DA]/-[B,DA]/-[B,DA]-<[B,DA] | %17
[M:9/8][K:bass] z2 E EDC B,3 |] %18
V:3
 x12 | x12 | x12 | z3 DDE F3 DE[DF] | z3 CCC B,3 GFE | x12 | x12 | z3 FFF F3 edc | %8
[M:9/8] [B,D]3 EEE F3 |[M:3/8] x3 |[M:6/4] z2 z GBA G3 GAB | z2 z EEE E3 FGA | z2 z DDE F3 [FA]3 | %13
 G12 | z2 z GBA G3 GAB | z2 z EEE E3 cde | %16
[M:27/16] z/ z/ z/ z/ z AAAA/-A/-A-<Af/-f/-f/-f/-f/-f-<f |[M:9/8] [EG]2 G cBA G3 |] %18
V:4
 x12 | x12 | x12 | F,3 B,,B,,[B,,A,] [B,,A,]3 [B,,A,B,][B,,A,B,][B,,A,] | G,3 z3 z6 | x12 | x12 | %7
 z3 F,F,F, F,3 [F,CG][F,B,F][F,=A,E] |[M:9/8] B,,8- B,, |[M:3/8] x3 |[M:6/4] x12 | x12 | x12 | %13
 x12 | x12 | x12 |[M:27/16] x9[K:treble] x9/2 |[M:9/8][K:bass] E,8- E, |] %18

